assets/icons/qvision/cloud_off.svg

<svg xmlns="http://www.w3.org/2000/svg" height="24" viewBox="0 0 24 24" width="24"><path d="M0 0h24v24H0z" fill="none"/><path d="M19.35 10.04C18.67 6.59 15.64 4 12 4c-1.48 0-2.85.43-4.01 1.17l1.46 1.46C10.21 6.23 11.08 6 12 6c3.04 0 5.5 2.46 5.5 5.5v.5H19c1.66 0 3 1.34 3 3 0 1.13-.64 2.11-1.56 2.62l1.45 1.45C23.16 18.16 24 16.68 24 15c0-2.64-2.05-4.78-4.65-4.96zM3 5.27l2.75 2.74C2.56 8.15 0 10.77 0 14c0 3.31 2.69 6 6 6h11.73l2 2L21 20.73 4.27 4 3 5.27zM7.73 10l8 8H6c-2.21 0-4-1.79-4-4s1.79-4 4-4h1.73z"/></svg>

<svg width="24" height="24" viewBox="0 0 24 24" fill="none" xmlns="http://www.w3.org/2000/svg">
<g clip-path="url(#clip0_147_2838)">
<path d="M19.35 10.04C18.67 6.59 15.64 4 12 4C10.52 4 9.15 4.43 7.99 5.17L9.45 6.63C10.21 6.23 11.08 6 12 6C15.04 6 17.5 8.46 17.5 11.5V12H19C20.66 12 22 13.34 22 15C22 16.13 21.36 17.11 20.44 17.62L21.89 19.07C23.16 18.16 24 16.68 24 15C24 12.36 21.95 10.22 19.35 10.04ZM3 5.27L5.75 8.01C2.56 8.15 0 10.77 0 14C0 17.31 2.69 20 6 20H17.73L19.73 22L21 20.73L4.27 4L3 5.27ZM7.73 10L15.73 18H6C3.79 18 2 16.21 2 14C2 11.79 3.79 10 6 10H7.73Z" fill="#323232"/>
</g>
<defs>
<clipPath id="clip0_147_2838">
<rect width="24" height="24" fill="white"/>
</clipPath>
</defs>
</svg>
